X: 14
T:Reel du Printemps
M:4/4
L:1/8
C:Trad.
S:Yvon Cuillerier
R:Reel
K:A
eg|:a2AA cAec|Bcde fefg|a2AA cAeA|fAgA a2eg|!
a2AA cAec|Bcde fefg|afge fdec|1dfec A2eg:|2dfec A2ed||!
|:cAEA Acec|Bcde f2ed|cAEA Acec|dfec dBBd|!
cAEA Acec|Bcde fefg|afge fdec|1dfec A2ed:|2dfec A2||!
